X:1
T:Title
%%score { 1 | ( 2 3 ) }
L:1/8
M:6/8
K:Eb
V:1 treble nm="Grand Piano"
V:2 bass 
V:3 bass 
V:1
 z3 z2[Q:1/4=90] [EG]/[FA]/ | [GB]2 [GB] [Ac]2 [GB] | [B,EG]2 F E2 E | [DF]2 [DF] [DF][EG][FA] | %4
 [EG]2 A B2 G/A/ | [EGB]2 [EGB] [EAc]2 [EGB] | [B,EG]2 F E2 E | FGA [B,DG]2 [A,DF] | %8
[M:5/8] [G,E]-[G,E]- [G,E]3 |[M:1/8] [B,GB] |[M:3/4] [Ge]>[Af] [Be]e dc | %11
 [GB]>[Ac] [GB] [B,EG]2 [B,EG] | [DFA]>[DGB] [DFA][B,DF] [B,EG][DFA] | [GB]>[Ac] [GB] [EG]2 [GB] | %14
 [Ge]>[Af] [Be]e dc | [GB]>[Ac] [GB] G2 G | FG A [DG]2 [DF] |[M:5/8] E-E- E3 |] %18
V:2
 z3 z2 [E,B,] | [E,E]2 [E,E] [E,E]2 [E,E] | E,G,[B,D] [E,G,]2 [E,G,] | %3
 [B,,B,]2 [B,,B,] [B,,B,]2 [B,,B,] | z2 F G2 E/F/ | E,2 E, E,2 E, | E,G,[B,D] [E,G,]2 [G,B,] | %7
 .[A,E]3 z3 |[M:5/8] E,-E,- E,3 |[M:1/8] E, | %10
[M:3/4] [E,B,]>[E,B,] [G,B,][K:treble][A,CA] [A,DA][A,EA] | [E,E]>[E,E] [E,E] E,2 E, | %12
 B,,>B,, B,,B,, B,,B,, | [E,E]>[E,E] [E,E] [E,B,]2 [E,B,] | %14
 [E,B,]>[E,B,] [G,B,][K:treble][A,CA] [A,DA][A,EA] | [E,E]>[E,E] [E,E] [E,B,E]2 [E,B,E] | %16
 [A,CE][G,C=E] [F,CF] [B,,B,]2 [B,,A,] |[M:5/8] [E,G,]-[E,G,]- [E,G,]3 |] %18
V:3
 x6 | x6 | x6 | x6 | [E,B,]3- [E,B,]2 [E,B,] | x6 | x6 | C-[G,C=E][F,CF] B,,2 B,, |[M:5/8] x5 | %9
[M:1/8] x |[M:3/4] x3[K:treble] x3 | x6 | x6 | x6 | x3[K:treble] x3 | x6 | x6 |[M:5/8] x5 |] %18

